packages/bezier-icons/icons/google.svg

<svg width="24" height="24" viewBox="0 0 24 24" fill="none" xmlns="http://www.w3.org/2000/svg">
<path d="M11.9996 10.1981V14.0487H17.4009C17.1767 15.2907 16.4566 16.3893 15.402 17.0874V17.09C14.5059 17.6984 13.3499 18.0427 12.0033 18.0427C9.39455 18.0427 7.18261 16.2827 6.38896 13.9165H6.38529C5.96642 12.6745 5.96642 11.3297 6.38529 10.0878C7.17526 7.7179 9.39087 5.9579 11.9996 5.9579C13.4253 5.93586 14.8031 6.47231 15.8356 7.45702L18.6905 4.60208C16.8828 2.90455 14.4835 1.97128 11.9996 2.00067C8.21877 2.00067 4.76124 4.13177 3.06371 7.51214C1.64543 10.3377 1.64543 13.6666 3.06371 16.4921C4.76124 19.8688 8.21877 21.9999 11.9996 21.9999C14.6966 21.9999 16.971 21.1144 18.6281 19.5859L18.6262 19.5844C20.5174 17.8428 21.6043 15.2715 21.6043 12.23C21.6043 11.5502 21.5492 10.8668 21.4316 10.1981H11.9996Z" fill="#313234"/>
</svg>

<svg xmlns="http://www.w3.org/2000/svg" width="24" height="24" fill="none" viewBox="0 0 24 24"><path fill="#313234" d="M12 10.198v3.85h5.4a4.63 4.63 0 0 1-1.998 3.04v.002c-.896.608-2.052.953-3.399.953-2.608 0-4.82-1.76-5.614-4.126h-.004a6 6 0 0 1 0-3.83c.79-2.37 3.006-4.13 5.615-4.13a5.43 5.43 0 0 1 3.836 1.5l2.855-2.855A9.6 9.6 0 0 0 12 2.001a10 10 0 0 0-8.936 5.511 10 10 0 0 0 0 8.98A10 10 0 0 0 12 22c2.697 0 4.971-.886 6.628-2.414l-.002-.002c1.891-1.741 2.978-4.312 2.978-7.354 0-.68-.055-1.363-.172-2.032z"/></svg>
